64x64/apps/ibus-keyboard.svg

<svg height="64" width="64" xmlns="http://www.w3.org/2000/svg"><rect fill="#2095f2" height="40" rx="2.8" width="56" x="4" y="12"/><circle cx="11" cy="22" opacity=".2" r="3"/><circle cx="21" cy="22" opacity=".2" r="3"/><circle cx="31" cy="22" opacity=".2" r="3"/><circle cx="41" cy="22" opacity=".2" r="3"/><circle cx="51" cy="22" opacity=".2" r="3"/><circle cx="17" cy="34" opacity=".2" r="3"/><circle cx="27" cy="34" opacity=".2" r="3"/><circle cx="37" cy="34" opacity=".2" r="3"/><circle cx="47" cy="34" opacity=".2" r="3"/><rect height="6" opacity=".2" rx="1.5" width="40" x="12" y="43"/><g fill="#f4f4f7"><circle cx="11" cy="21" r="3"/><circle cx="21" cy="21" r="3"/><circle cx="31" cy="21" r="3"/><circle cx="41" cy="21" r="3"/><circle cx="51" cy="21" r="3"/><circle cx="17" cy="33" r="3"/><circle cx="27" cy="33" r="3"/><circle cx="37" cy="33" r="3"/><circle cx="47" cy="33" r="3"/><rect height="6" rx="1.5" width="40" x="12" y="42"/><path d="m6.8 12c-1.55 0-2.8 1.25-2.8 2.801v1a2.796 2.796 0 0 1 2.8-2.801h50.4a2.796 2.796 0 0 1 2.8 2.801v-1a2.796 2.796 0 0 0 -2.8-2.801z" opacity=".1"/></g><path d="m4 49.199v1a2.796 2.796 0 0 0 2.8 2.801h50.4a2.796 2.796 0 0 0 2.8-2.801v-1a2.796 2.796 0 0 1 -2.8 2.801h-50.4a2.796 2.796 0 0 1 -2.8-2.801z" opacity=".2"/></svg>

<svg xmlns="http://www.w3.org/2000/svg" width="64" height="64" version="1"><rect style="fill:#2095f2" width="56" height="40" x="4" y="12" rx="2.8" ry="2.8"/><circle style="opacity:.2" cx="11" cy="22" r="3"/><circle style="opacity:.2" cx="21" cy="22" r="3"/><circle style="opacity:.2" cx="31" cy="22" r="3"/><circle style="opacity:.2" cx="41" cy="22" r="3"/><circle style="opacity:.2" cx="51" cy="22" r="3"/><circle style="opacity:.2" cx="17" cy="34" r="3"/><circle style="opacity:.2" cx="27" cy="34" r="3"/><circle style="opacity:.2" cx="37" cy="34" r="3"/><circle style="opacity:.2" cx="47" cy="34" r="3"/><rect style="opacity:.2" width="40" height="6" x="12" y="43" rx="1.5" ry="1.5"/><circle style="fill:#f4f4f7" cx="11" cy="21" r="3"/><circle style="fill:#f4f4f7" cx="21" cy="21" r="3"/><circle style="fill:#f4f4f7" cx="31" cy="21" r="3"/><circle style="fill:#f4f4f7" cx="41" cy="21" r="3"/><circle style="fill:#f4f4f7" cx="51" cy="21" r="3"/><circle style="fill:#f4f4f7" cx="17" cy="33" r="3"/><circle style="fill:#f4f4f7" cx="27" cy="33" r="3"/><circle style="fill:#f4f4f7" cx="37" cy="33" r="3"/><circle style="fill:#f4f4f7" cx="47" cy="33" r="3"/><rect style="fill:#f4f4f7" width="40" height="6" x="12" y="42" rx="1.5" ry="1.5"/><path style="opacity:.1;fill:#f4f4f7" d="M6.8 12C5.25 12 4 13.25 4 14.801v1A2.796 2.796 0 0 1 6.8 13H57.2a2.796 2.796 0 0 1 2.8 2.801v-1A2.796 2.796 0 0 0 57.2 12H6.8z"/><path style="opacity:.2" d="M4 49.199v1A2.796 2.796 0 0 0 6.8 53H57.2a2.796 2.796 0 0 0 2.8-2.801v-1A2.796 2.796 0 0 1 57.2 52H6.8A2.796 2.796 0 0 1 4 49.199z"/></svg>
